images/intro-icon.svg

<svg width="20" height="69" viewBox="0 0 20 69" fill="none" xmlns="http://www.w3.org/2000/svg">
<path d="M19.8372 43.7682C19.0787 29.7428 16.111 13.8178 11.4111 1.77122C11.7245 1.0447 11.245 -0.219081 10.6159 0.0326471C3.22778 2.98797 1.14916 23.5694 0.389332 33.3937C-0.448886 44.2302 -0.682241 64.7384 7.76561 68.3159C11.2466 69.7906 15.3789 67.8922 17.6002 63.2946C20.1916 57.9311 20.1853 50.2029 19.8372 43.7682ZM16.8406 34.0295C14.5593 33.4665 11.3791 34.5443 10.0267 34.8442C9.47931 34.9655 8.94625 35.1128 8.41274 35.2602C8.47568 25.0581 9.31389 14.7821 10.1589 4.68098C12.1544 10.8709 15.1717 22.5577 16.8406 34.0295ZM15.6045 37.7246C15.5332 37.9289 15.4698 38.1148 15.4184 38.2787C15.2539 38.0759 15.0928 37.8609 14.9272 37.6555C15.1521 37.6768 15.3782 37.6999 15.6045 37.7246ZM2.38206 34.4462C2.90126 25.9003 4.33662 11.0576 8.9826 4.42704C7.02032 14.0989 6.06077 25.0783 6.15325 35.9742C6.02691 36.0198 5.90353 36.0786 5.77765 36.126C5.55316 36.0113 5.30231 36.0183 5.061 36.2197C4.9458 36.3164 4.84173 36.4424 4.73016 36.549C3.88672 36.9058 3.0485 37.2898 2.21778 37.7341C2.26663 36.4957 2.32548 35.3782 2.38206 34.4462ZM8.91058 65.2316C4.22505 64.7436 2.642 56.5071 2.23096 48.2876C2.3423 48.3857 2.4625 48.45 2.58747 48.4761C2.61314 48.5371 2.66041 48.5687 2.71199 48.5151C2.72312 48.5037 2.73516 48.4948 2.74652 48.4831C2.96488 48.4654 3.18779 48.3254 3.38751 48.0009C3.43841 47.9179 3.48976 47.833 3.54089 47.7488C4.48681 46.9543 5.49567 46.3774 6.53225 45.9416C7.00306 52.6978 7.89581 59.2541 9.24323 65.2515C9.13189 65.2437 9.02441 65.2434 8.91058 65.2316ZM11.3019 65.121C11.2939 65.0765 11.2905 65.0346 11.28 64.9887C9.78061 58.521 8.97851 51.911 8.6236 45.2338C9.19687 45.0783 9.77061 44.9435 10.3389 44.8251C12.9726 44.2765 15.417 45.3073 17.9633 45.1423C18.4616 55.505 16.9651 63.8987 11.3019 65.121Z" fill="white"/>
</svg>

<svg width="20" height="69" fill="none" xmlns="http://www.w3.org/2000/svg"><path d="M19.837 43.768c-.758-14.025-3.726-29.95-8.426-41.997.314-.726-.166-1.99-.795-1.738C3.228 2.988 1.149 23.569.389 33.393-.449 44.23-.682 64.739 7.766 68.317c3.48 1.475 7.613-.424 9.834-5.021 2.592-5.364 2.585-13.092 2.237-19.527zm-2.996-9.739c-2.282-.563-5.462.515-6.814.815-.548.121-1.08.269-1.614.416.063-10.202.9-20.478 1.746-30.579 1.995 6.19 5.013 17.877 6.682 29.348zm-1.237 3.696c-.07.204-.134.39-.186.554-.164-.203-.325-.418-.49-.623.224.02.45.044.676.069zM2.383 34.446c.52-8.546 1.955-23.388 6.6-30.019-1.962 9.672-2.921 20.651-2.829 31.547-.126.046-.25.105-.375.152-.225-.115-.476-.108-.717.094-.115.096-.22.222-.33.329-.844.357-1.682.74-2.513 1.185.049-1.238.107-2.356.164-3.288zm6.529 30.786c-4.686-.488-6.269-8.725-6.68-16.944a.786.786 0 00.356.188c.026.061.073.093.125.04.011-.012.023-.021.035-.033.218-.018.44-.158.64-.482l.154-.252a11.565 11.565 0 012.991-1.807c.471 6.756 1.364 13.312 2.711 19.31-.111-.008-.219-.009-.332-.02zm2.39-.111c-.007-.044-.01-.086-.021-.132-1.5-6.468-2.301-13.078-2.656-19.755.573-.156 1.147-.29 1.715-.409 2.634-.549 5.078.482 7.624.317.499 10.363-.998 18.757-6.661 19.979z" fill="#fff"/></svg>
